X:1
T:Prayer for HM the Queen
T:John Dowland
T:Source : The Whole Book of Psalms---London---Musical Antiquarian Society---1844. Editor : André Vierendeels (23/08/16).
T:Notes : Original clefs : G2, G2, C3, F4 Editorial accidentals above the staff
T:Prayer for HM the Queen
T:©
T:©
C:John Dowland
Z:©
%%score [ 1 2 3 4 ]
L:1/8
Q:1/4=125
M:4/4
K:C
V:1 treble nm="Soprano" snm="S"
V:2 treble nm="Alto" snm="A"
V:3 treble-8 nm="Tenor" snm="T"
V:4 bass nm="Bass" snm="B"
V:1
 c8 | c4 d4 | c4 A4 | A4 ^G4 | A8 || z4 e4 | e4 c4 | c4 B4 | c8 || z4 c4 | c6 B2 | B4 d4 | A6 B2 | %13
w: O,|God of|pow'r om-|ni- po-|tent,|and|good- ness|in- fi-|nite,|whose|name is|more than|ex- cel-|
 c8 || z4 c4 | B4 A4 | A4 ^G4 | !fermata!A8 |] %18
w: lent,|and|works all|ex- qui-|.te.|
V:2
 E8 | A4 ^G4 | A4 E4 | F4 E2 D2 | ^C8 ||"^-natural" z4 C4- | C2 A,2 E4 | G4 D4 | G8 || z4 G4 | %10
w: O,|God of|pow'r om-|ni- po- *|tent,|and|_ good- ness|in- fi-|nite,|whose|
 A6 A2 | G6 D2 | F4 F4 | G8 || z4 G4 | G4 E4 | F4 E2 D2 | !fermata!^C8 |] %18
w: name is|more than|ex- cel-|lent,|and|works all|ex- qui- *|te.|
V:3
 A8 | A4 B4 | c4 c4 | B6 B2 | A8 || z4 A4 | c6 c2 | d4 g4 | e8 || z4 e4 | e6 e2 | d4 B4 | c4 d4 | %13
w: O,|God of|pow'r om-|ni- po-|tent,|and|good- ness|in- fi-|nite,|whose|name is|more than|ex- cel-|
 e8 || z4 e4 | d4 c4 | d4 B4 | !fermata!A8 |] %18
w: lent,|and|works all|ex- qui-|te.|
V:4
 A,,8 | C,4 B,,4 | A,,4 C,4 | D,4 E,4 | A,,8 || z4 A,,4 | A,6 A,2 | G,4 G,4 | C,8 || z4 C,4 | %10
w: O,|God of|pow'r om-|ni- po-|tent,|and|good- ness|in- fi-|nite,|whose|
 A,6 E,2 | G,4 G,4 | F,4 D,4 | C,8 || z4 C,4 | G,4 A,4 | D,4 E,4 | !fermata!A,,8 |] %18
w: nama is|more than|ex- cel-|lent,|and|works all|ex- qui-|te.|

